X:1
T:The Congress
M:6/8
L:1/4
K:F
 C/2| F G/2 F A/2| c A/2 F A/2| G A/2 G A/2| G E/2 D C/2| F G/2 F A/2|\
 c A/2 F A/2| G F/2 E D/2| C3/2 C C/2| G A/2 G A/2| G E/2 D C/2| A B/2 c d/2|\
 c A/2 G F/2| B A/2 B c/2| d e/2 f d/2| c B/2 A G/2| F3/2 F||
